packages/ui-icons/svg/Line/zipped.svg

<svg viewBox="0 0 1920 1920" version="1.1" xmlns="http://www.w3.org/2000/svg">
    <path d="M1185.47059,112.941176 L1185.47059,564.705882 L1637.23529,564.705882 L1637.23529,1807.05882 L846.872941,1807.05882 L846.872941,1468.23529 L959.588235,1468.23529 L959.588235,1355.29412 L846.872941,1355.29412 L846.872941,1242.35294 L959.588235,1242.35294 L959.588235,1129.41176 L846.872941,1129.41176 L846.872941,1016.47059 L959.588235,1016.47059 L959.588235,903.529412 L846.872941,903.529412 L846.872941,790.588235 L959.588235,790.588235 L959.588235,677.647059 L846.872941,677.647059 L846.872941,441.261176 C912.378824,417.882353 959.588235,355.764706 959.588235,282.352941 L959.588235,112.941176 L1185.47059,112.941176 Z M620.764706,112.941176 L620.764706,282.352941 C620.764706,355.990588 668.2,418.108235 733.931765,441.487059 L733.931765,564.705882 L620.764706,564.705882 L620.764706,677.647059 L733.931765,677.647059 L733.931765,790.588235 L620.764706,790.588235 L620.764706,903.529412 L733.931765,903.529412 L733.931765,1016.47059 L620.764706,1016.47059 L620.764706,1129.41176 L733.931765,1129.41176 L733.931765,1242.35294 L620.764706,1242.35294 L620.764706,1355.29412 L733.931765,1355.29412 L733.931765,1468.23529 L620.764706,1468.23529 L620.764706,1581.17647 L733.931765,1581.17647 L733.931765,1807.05882 L281.941176,1807.05882 L281.941176,112.941176 L620.764706,112.941176 Z M1298.41176,136.32 L1613.85647,451.764706 L1298.41176,451.764706 L1298.41176,136.32 Z M846.647059,112.941176 L846.647059,282.352941 C846.647059,313.524706 821.235294,338.823529 790.176471,338.823529 C759.117647,338.823529 733.705882,313.524706 733.705882,282.352941 L733.705882,112.941176 L846.647059,112.941176 Z M1700.59529,378.804706 L1371.48471,49.5811765 C1339.86118,18.0705882 1296.26588,-5.68434189e-14 1251.65412,-5.68434189e-14 L959.588235,-5.68434189e-14 L620.764706,-5.68434189e-14 L169,-5.68434189e-14 L169,1920 L1750.17647,1920 L1750.17647,498.522353 C1750.17647,453.345882 1732.55765,410.767059 1700.59529,378.804706 L1700.59529,378.804706 Z" stroke="none" stroke-width="1" fill-rule="evenodd"/>
</svg>

<svg viewBox="0 0 1920 1920" xmlns="http://www.w3.org/2000/svg">
    <path d="M1185.47 112.941v451.765h451.765v1242.353H846.873v-338.824h112.715v-112.94H846.873v-112.942h112.715v-112.941H846.873V1016.47h112.715V903.529H846.873V790.59h112.715V677.646H846.873V441.261c65.506-23.379 112.715-85.496 112.715-158.908V112.94h225.883Zm-564.705 0v169.412c0 73.638 47.435 135.755 113.167 159.134v123.219H620.765v112.941h113.167v112.941H620.765V903.53h113.167v112.942H620.765v112.94h113.167v112.942H620.765v112.941h113.167v112.941H620.765v112.941h113.167v225.883h-451.99V112.94h338.823Zm677.647 23.379 315.444 315.445h-315.444V136.32Zm-451.765-23.379v169.412c0 31.172-25.412 56.47-56.47 56.47-31.06 0-56.471-25.298-56.471-56.47V112.94h112.941Zm853.948 265.864L1371.485 49.58C1339.86 18.071 1296.265 0 1251.655 0H169v1920h1581.176V498.522c0-45.176-17.618-87.755-49.58-119.717Z" fill-rule="evenodd"/>
</svg>
